icons/1passwordColor.svg

<svg width="16" height="16" viewBox="0 0 16 16" fill="none" xmlns="http://www.w3.org/2000/svg">
<g clip-path="url(#clip0_1745_1234)">
<path fill-rule="evenodd" clip-rule="evenodd" d="M0.275879 8.00002C0.275879 12.2661 3.73409 15.7242 8.00002 15.7242C12.2659 15.7242 15.7242 12.2661 15.7242 8.00002C15.7242 3.73409 12.2659 0.275879 8.00002 0.275879C3.73409 0.275879 0.275879 3.73409 0.275879 8.00002Z" fill="white"/>
<path fill-rule="evenodd" clip-rule="evenodd" d="M8.00012 1.93115C11.3519 1.93115 14.0691 4.64835 14.0691 8.00012C14.0691 11.352 11.3519 14.0691 8.00012 14.0691C4.64835 14.0691 1.93115 11.352 1.93115 8.00012C1.93115 4.64835 4.64835 1.93115 8.00012 1.93115Z" fill="#1A8CFF"/>
<path opacity="0.5" d="M0 8C0 12.4184 3.58172 16 8 16C12.4183 16 16 12.4184 16 8C16 3.58172 12.4183 0 8 0C3.58172 0 0 3.58172 0 8ZM0.275862 8C0.275862 3.73454 3.7336 0.275862 8 0.275862C12.2664 0.275862 15.7241 3.73454 15.7241 8C15.7241 12.2655 12.2664 15.7241 8 15.7241C3.73355 15.7241 0.275862 12.2655 0.275862 8Z" fill="black"/>
<path fill-rule="evenodd" clip-rule="evenodd" d="M15.7133 7.58627C15.7205 7.72329 15.7242 7.86125 15.7242 8.00007C15.7242 12.266 12.2659 15.7242 8.00002 15.7242C3.73409 15.7242 0.275879 12.266 0.275879 8.00007C0.275879 7.86125 0.279541 7.72329 0.286774 7.58627C0.501783 11.6598 3.8729 14.8966 8.00002 14.8966C12.0953 14.8966 15.4462 11.7095 15.7077 7.68035L15.7133 7.58627ZM8.00002 1.10352C11.7327 1.10352 14.7586 4.12945 14.7586 7.86214C14.7586 9.94893 13.8129 11.8148 12.3266 13.0546C13.5684 11.8965 14.3448 10.2458 14.3448 8.41386C14.3448 4.90971 11.5042 2.06903 8.00002 2.06903C4.49587 2.06903 1.65519 4.90971 1.65519 8.41386C1.65519 10.2458 2.4316 11.8965 3.67332 13.0546C2.18715 11.8148 1.2414 9.94893 1.2414 7.86214C1.2414 4.12945 4.26733 1.10352 8.00002 1.10352Z" fill="black" fill-opacity="0.0524476"/>
<path opacity="0.256138" d="M8.00012 1.93091C11.3523 1.93091 14.0691 4.64854 14.0691 7.99987C14.0691 11.3513 11.3524 14.0688 8.00012 14.0688C4.68138 14.0688 1.98555 11.4054 1.93197 8.10022L1.93115 7.99987C1.93115 4.64854 4.6479 1.93091 8.00012 1.93091ZM8.00012 2.20677C4.8007 2.20677 2.20701 4.80046 2.20701 7.99987C2.20701 11.1994 4.8007 13.793 8.00012 13.793C11.1995 13.793 13.7932 11.1994 13.7932 7.99987C13.7932 4.80046 11.1995 2.20677 8.00012 2.20677Z" fill="black"/>
<path d="M8.03069 3.17236C5.33378 3.17236 3.17236 5.33378 3.17236 8.03069C3.17236 10.6762 5.3438 12.8275 8.03069 12.8275C10.6662 12.8275 12.8275 10.6662 12.8275 8.03069C12.8275 5.34384 10.6761 3.17236 8.03069 3.17236ZM8.0305 3.44823C10.5138 3.44823 12.5517 5.48613 12.5517 8.0305C12.5517 10.5139 10.5138 12.5517 8.0305 12.5517C5.48613 12.5517 3.44823 10.5139 3.44823 8.0305C3.44823 5.48613 5.48613 3.44823 8.0305 3.44823Z" fill="black" fill-opacity="0.25"/>
<path fill-rule="evenodd" clip-rule="evenodd" d="M8.03052 3.44824C10.5138 3.44824 12.5517 5.48615 12.5517 8.03052C12.5517 10.5139 10.5138 12.5517 8.03052 12.5517C5.48615 12.5517 3.44824 10.5139 3.44824 8.03052C3.44824 5.48615 5.48615 3.44824 8.03052 3.44824Z" fill="#F7F7F7"/>
<path fill-rule="evenodd" clip-rule="evenodd" d="M10.0691 7.99987C10.0691 9.14252 9.14278 10.0688 8.00012 10.0688C6.85746 10.0688 5.93115 9.14252 5.93115 7.99987C5.93115 6.85723 6.85746 5.93091 8.00012 5.93091C9.14278 5.93091 10.0691 6.85723 10.0691 7.99987Z" fill="black" fill-opacity="0.05"/>
<path d="M8.0001 5.65503C6.70509 5.65503 5.65527 6.70485 5.65527 7.99986C5.65527 9.29486 6.70509 10.3447 8.0001 10.3447C9.29511 10.3447 10.3449 9.29486 10.3449 7.99986C10.3449 6.70485 9.29511 5.65503 8.0001 5.65503ZM8.0001 5.93089C9.14276 5.93089 10.0691 6.85721 10.0691 7.99986C10.0691 9.1425 9.14276 10.0688 8.0001 10.0688C6.85744 10.0688 5.93114 9.1425 5.93114 7.99986C5.93114 6.85721 6.85744 5.93089 8.0001 5.93089Z" fill="white"/>
<path d="M8.00012 5.93091C9.14278 5.93091 10.0691 6.85723 10.0691 7.99987C10.0691 9.14252 9.14278 10.0688 8.00012 10.0688C6.85746 10.0688 5.93115 9.14252 5.93115 7.99987C5.93115 6.85723 6.85746 5.93091 8.00012 5.93091ZM8.00012 6.20677C7.00982 6.20677 6.20701 7.00958 6.20701 7.99987C6.20701 8.99017 7.00982 9.79298 8.00012 9.79298C8.99042 9.79298 9.79322 8.99017 9.79322 7.99987C9.79322 7.00958 8.99042 6.20677 8.00012 6.20677Z" fill="black" fill-opacity="0.15"/>
<path d="M8.76914 4.41382H7.2307C6.88972 4.41382 6.62061 4.71238 6.62061 5.07206V6.56059C6.62061 6.69598 6.66944 6.82678 6.75795 6.92497L6.98408 7.17584C6.98935 7.18169 6.98935 7.19812 6.98408 7.20397L6.75795 7.45485C6.66944 7.55303 6.62061 7.68384 6.62061 7.81923V10.928C6.62061 11.2877 6.88972 11.5862 7.2307 11.5862H8.76914C9.11011 11.5862 9.37923 11.2877 9.37923 10.928V9.43946C9.37923 9.30407 9.33039 9.17327 9.24188 9.07508L9.01575 8.82421C9.01048 8.81836 9.01048 8.80193 9.01575 8.79608L9.24188 8.5452C9.33039 8.44701 9.37923 8.31621 9.37923 8.18082V5.07206C9.37923 4.71238 9.11011 4.41382 8.76914 4.41382ZM8.7516 4.69489C8.94587 4.69489 9.10336 4.87334 9.10336 5.09348V8.17956C9.10336 8.25004 9.07866 8.31763 9.03468 8.36746L8.81483 8.61658C8.72324 8.72036 8.72324 8.88861 8.81483 8.99238L9.03468 9.2415C9.07866 9.29134 9.10336 9.35893 9.10336 9.4294V10.9066C9.10336 11.1267 8.94587 11.3052 8.7516 11.3052H7.24823C7.05396 11.3052 6.89647 11.1267 6.89647 10.9066V7.82049C6.89647 7.75001 6.92117 7.68242 6.96515 7.63259L7.18501 7.38347C7.27659 7.27969 7.27659 7.11144 7.18501 7.00767L6.96515 6.75855C6.92117 6.70871 6.89647 6.64112 6.89647 6.57065V5.09348C6.89647 4.87334 7.05396 4.69489 7.24823 4.69489H8.7516Z" fill="white"/>
<path fill-rule="evenodd" clip-rule="evenodd" d="M6.89648 6.56841V5.08892C6.89648 4.86844 7.05397 4.6897 7.24825 4.6897H8.75162C8.94589 4.6897 9.10338 4.86844 9.10338 5.08892V8.17986C9.10338 8.25045 9.07867 8.31814 9.03469 8.36806L8.81484 8.61757C8.72326 8.72151 8.72326 8.89002 8.81484 8.99396L9.03469 9.24347C9.07867 9.29339 9.10338 9.36108 9.10338 9.43167V10.9112C9.10338 11.1316 8.94589 11.3104 8.75162 11.3104H7.24825C7.05397 11.3104 6.89648 11.1316 6.89648 10.9112V7.82022C6.89648 7.74964 6.92119 7.68194 6.96517 7.63203L7.18502 7.38251C7.2766 7.27858 7.2766 7.11006 7.18502 7.00612L6.96517 6.75661C6.92119 6.7067 6.89648 6.639 6.89648 6.56841Z" fill="#0A2D4D"/>
<path d="M8.75162 4.6897C8.94589 4.6897 9.10338 4.86844 9.10338 5.08892V8.17986C9.10338 8.25045 9.07867 8.31814 9.03469 8.36806L8.81484 8.61757C8.72326 8.72151 8.72326 8.89002 8.81484 8.99396L9.03469 9.24347C9.07867 9.29339 9.10338 9.36108 9.10338 9.43167V10.9112C9.10338 11.1316 8.94589 11.3104 8.75162 11.3104H7.24825C7.05397 11.3104 6.89648 11.1316 6.89648 10.9112V7.82022C6.89648 7.74964 6.92119 7.68194 6.96517 7.63203L7.18502 7.38251C7.2766 7.27858 7.2766 7.11006 7.18502 7.00612L6.96517 6.75661C6.92119 6.7067 6.89648 6.639 6.89648 6.56841V5.08892C6.89648 4.86844 7.05397 4.6897 7.24825 4.6897H8.75162ZM8.71188 4.97306L7.28799 4.97121C7.23221 4.97121 7.17981 5.02351 7.17308 5.09761L7.17235 5.11381V6.5801C7.17235 6.58441 7.17325 6.58819 7.17444 6.59086L7.17637 6.59398L7.4067 6.84145C7.58678 7.03495 7.59299 7.33814 7.42533 7.5392L7.4067 7.56034L7.17637 7.80782C7.17504 7.80925 7.17369 7.81207 7.17295 7.8157L7.17235 7.82169V10.8863C7.17235 10.9633 7.22102 11.0208 7.2761 11.0281L7.28799 11.0289L8.71188 11.0307C8.76766 11.0307 8.82005 10.9784 8.82679 10.9043L8.82752 10.8881V9.42183C8.82752 9.41752 8.82662 9.41375 8.82543 9.41108L8.82349 9.40796L8.59317 9.16048C8.41309 8.96699 8.40688 8.6638 8.57454 8.46274L8.59317 8.44159L8.82349 8.19412C8.82483 8.19268 8.82617 8.18987 8.82692 8.18624L8.82752 8.18024V5.11566C8.82752 5.0386 8.77884 4.98116 8.72376 4.97385L8.71188 4.97306Z" fill="black" fill-opacity="0.4"/>
</g>
<defs>
<clipPath id="clip0_1745_1234">
<rect width="16" height="16" fill="white"/>
</clipPath>
</defs>
</svg>

<svg width="16" height="16" fill="none" xmlns="http://www.w3.org/2000/svg"><g clip-path="url(#a)"><path fill-rule="evenodd" clip-rule="evenodd" d="M.276 8a7.724 7.724 0 1 0 15.448 0A7.724 7.724 0 0 0 .276 8z" fill="#fff"/><path fill-rule="evenodd" clip-rule="evenodd" d="M8 1.931A6.069 6.069 0 1 1 8 14.07 6.069 6.069 0 0 1 8 1.931z" fill="#1A8CFF"/><path opacity=".5" d="M0 8a8 8 0 1 0 16 0A8 8 0 0 0 0 8zm.276 0a7.724 7.724 0 1 1 15.448 0A7.724 7.724 0 0 1 .276 8z" fill="#000"/><path fill-rule="evenodd" clip-rule="evenodd" d="M15.713 7.586a7.724 7.724 0 1 1-15.427 0 7.724 7.724 0 0 0 15.422.094l.005-.094zM8 1.104a6.759 6.759 0 0 1 4.327 11.95 6.345 6.345 0 1 0-8.653 0A6.759 6.759 0 0 1 8 1.104z" fill="#000" fill-opacity=".052"/><path opacity=".256" d="M8 1.93A6.069 6.069 0 1 1 1.932 8.1V8A6.069 6.069 0 0 1 8 1.93zm0 .277a5.793 5.793 0 1 0 0 11.586A5.793 5.793 0 0 0 8 2.207z" fill="#000"/><path d="M8.03 3.172a4.84 4.84 0 0 0-4.858 4.859c0 2.645 2.172 4.796 4.859 4.796 2.635 0 4.796-2.16 4.796-4.796 0-2.687-2.15-4.859-4.796-4.859zm0 .276c2.484 0 4.522 2.038 4.522 4.582 0 2.484-2.038 4.522-4.521 4.522-2.545 0-4.583-2.038-4.583-4.521A4.565 4.565 0 0 1 8.03 3.447z" fill="#000" fill-opacity=".25"/><path fill-rule="evenodd" clip-rule="evenodd" d="M8.03 3.448c2.484 0 4.522 2.038 4.522 4.583 0 2.483-2.038 4.52-4.521 4.52-2.545 0-4.583-2.037-4.583-4.52a4.565 4.565 0 0 1 4.583-4.583z" fill="#F7F7F7"/><path fill-rule="evenodd" clip-rule="evenodd" d="M10.07 8A2.069 2.069 0 1 1 5.93 8a2.069 2.069 0 0 1 4.138 0z" fill="#000" fill-opacity=".05"/><path d="M8 5.655a2.345 2.345 0 1 0 0 4.69 2.345 2.345 0 0 0 0-4.69zm0 .276a2.069 2.069 0 1 1 0 4.138A2.069 2.069 0 0 1 8 5.93z" fill="#fff"/><path d="M8 5.93a2.069 2.069 0 1 1 0 4.139A2.069 2.069 0 0 1 8 5.93zm0 .277a1.793 1.793 0 1 0 0 3.586 1.793 1.793 0 0 0 0-3.586z" fill="#000" fill-opacity=".15"/><path d="M8.77 4.414H7.23c-.34 0-.61.298-.61.658v1.489c0 .135.05.266.138.364l.226.25c.005.007.005.023 0 .029l-.226.25a.545.545 0 0 0-.137.365v3.109c0 .36.269.658.61.658h1.538c.341 0 .61-.298.61-.658V9.439a.545.545 0 0 0-.137-.364l-.226-.25c-.006-.007-.006-.023 0-.029l.226-.25a.545.545 0 0 0 .137-.365V5.072c0-.36-.269-.658-.61-.658zm-.018.28c.194 0 .351.18.351.4V8.18c0 .07-.024.138-.068.187l-.22.25a.291.291 0 0 0 0 .375l.22.25c.044.05.068.117.068.187v1.478c0 .22-.157.398-.351.398H7.248c-.194 0-.352-.178-.352-.398V7.82c0-.07.025-.138.07-.187l.219-.25a.291.291 0 0 0 0-.375l-.22-.25a.285.285 0 0 1-.069-.187V5.093c0-.22.158-.398.352-.398h1.504z" fill="#fff"/><path fill-rule="evenodd" clip-rule="evenodd" d="M6.896 6.568v-1.48c0-.22.158-.398.352-.398h1.504c.194 0 .351.178.351.399v3.09c0 .071-.024.14-.068.19l-.22.249a.292.292 0 0 0 0 .376l.22.25c.044.05.068.117.068.188v1.48c0 .22-.157.398-.351.398H7.248c-.194 0-.352-.178-.352-.399v-3.09c0-.071.025-.14.07-.189l.219-.25a.292.292 0 0 0 0-.376l-.22-.25a.285.285 0 0 1-.069-.188z" fill="#0A2D4D"/><path d="M8.752 4.69c.194 0 .351.178.351.399v3.09c0 .071-.024.14-.068.19l-.22.249a.292.292 0 0 0 0 .376l.22.25c.044.05.068.117.068.188v1.48c0 .22-.157.398-.351.398H7.248c-.194 0-.352-.178-.352-.399v-3.09c0-.071.025-.14.07-.189l.219-.25a.292.292 0 0 0 0-.376l-.22-.25a.285.285 0 0 1-.069-.188v-1.48c0-.22.158-.398.352-.398h1.504zm-.04.283-1.424-.002c-.056 0-.108.053-.115.127V6.58l.001.01.002.004.23.247c.18.194.187.497.02.698l-.02.021-.23.248a.017.017 0 0 0-.003.008v3.07c0 .077.048.135.103.142h.012l1.424.003c.056 0 .108-.053.115-.127V9.422c0-.004 0-.008-.002-.01l-.002-.004-.23-.248a.532.532 0 0 1-.018-.697l.018-.021.23-.248a.017.017 0 0 0 .004-.008v-3.07c0-.077-.048-.135-.103-.142h-.012z" fill="#000" fill-opacity=".4"/></g><defs><clipPath id="a"><path fill="#fff" d="M0 0h16v16H0z"/></clipPath></defs></svg>
